svgs/radiodroid.svg

<svg xmlns="http://www.w3.org/2000/svg" viewBox="0 0 192 192"><path d="M106.858 27.15a68.562 68.562 0 0 1 48.525 20.172A68.98 68.98 0 0 1 175.482 96a68.98 68.98 0 0 1-20.099 48.678 68.562 68.562 0 0 1-48.525 20.172m0-22.977a45.648 45.648 0 0 0 26.889-8.756 45.876 45.876 0 0 0 16.62-22.939 46.014 46.014 0 0 0 0-28.356 45.876 45.876 0 0 0-16.62-22.939 45.648 45.648 0 0 0-26.889-8.756M79.263 28.581c3.138-.45 4.728 2.902 4.728 10.057v114.601c0 11.489-4.076 13.124-12.229 5.07l-50.707-50.82A16.754 16.754 0 0 1 16.498 96c0-4.272 1.631-8.385 4.557-11.489l50.789-50.942a15.854 15.854 0 0 1 7.419-4.988Zm27.636 43.174a24.145 24.145 0 0 1 17.042 7.128A24.292 24.292 0 0 1 130.994 96a24.292 24.292 0 0 1-7.053 17.117 24.145 24.145 0 0 1-17.042 7.128" fill="none" stroke="#000" stroke-width="12" stroke-linecap="round" stroke-linejoin="round"/></svg>

<svg
    xmlns="http://www.w3.org/2000/svg"
    viewBox="0 0 192 192"
    id="vector">
    <path
        id="path"
        d="M 106.858 27.15 C 125.053 27.155 142.519 34.416 155.383 47.322 C 168.247 60.228 175.482 77.75 175.482 96 C 175.482 114.25 168.247 131.772 155.383 144.678 C 142.519 157.584 125.053 164.845 106.858 164.85 M 106.858 141.873 C 116.516 141.876 125.932 138.81 133.747 133.117 C 141.562 127.424 147.381 119.392 150.367 110.178 C 153.352 100.965 153.352 91.035 150.367 81.822 C 147.381 72.608 141.562 64.576 133.747 58.883 C 125.932 53.19 116.516 50.124 106.858 50.127 M 79.263 28.581 C 82.401 28.131 83.991 31.483 83.991 38.638 L 83.991 153.239 C 83.991 164.728 79.915 166.363 71.762 158.309 L 21.055 107.489 C 18.129 104.385 16.498 100.272 16.498 96 C 16.498 91.728 18.129 87.615 21.055 84.511 L 71.844 33.569 C 73.789 31.228 76.365 29.496 79.263 28.581 Z M 106.899 71.755 C 113.294 71.775 119.426 74.341 123.941 78.883 C 128.456 83.426 130.994 89.586 130.994 96 C 130.994 102.414 128.456 108.574 123.941 113.117 C 119.426 117.659 113.294 120.225 106.899 120.245"
        fill="none"
        stroke="#000000"
        stroke-width="12"
        stroke-linecap="round"
        stroke-linejoin="round"/>
</svg>
